!!!OTL: Der Wein und das Wasser (Band 1), S. 229
!!!id: P0857
**kern
*clefG2
*k[]
*a:
{8e
=1
8e
8e
16e
16a
=2
4a
16.a
32cc
=3
16cc
16cc
8b
8a
=4
8g
8g}
{8e
=5
8a
16a
16a
8e
=6
8f
8f
8d
=7
8e
8e}
=8
{8g
=9
8.cc
16cc
8cc
=10
8.cc
16dd
8ee
=11
8.dd
16ee
8ff
=12
4ee
8a
=13
4.a
=14
4g
32ccccc#
32aaaa}
{16cc
=15yy
16cc
=16
8.b
16cc
8dd
=17
8cc
8b
8a
=18
4.g#
=19
4a}
==
*-
!!!minrhy: 32
!!!meters: 3/8 ]  ZZ[4
!!!cut: Der Wein und das Wasser (Band 1), S. 229
!!!reg: Lothringen
!!!trd: PINCK, Louis: Verklingende Weisen, Bd 1, Metz 1928
!!!rhy1: X__  X__X__X_X_  X___X_.X  X_X_X__X__  X__X__
!!!rhy2: X__  X__X_X_X__  X__X__X__  X__X__
!!!key: P0857  32  A 3/8 ]  ZZ[4
!!!mod: ACHTTONSKALA MELODISCH MOLL OHNE 6]  AMBITUS[10b
!!!kad: -7b-5-7b1
!!!akz: -513b-7b_1-6b-5_3b3b451-7b_23b-71_
!!!fot: 'a__b__c__d__
!!!for: 'a__b__c__d__
!!!fok: '^a_^__^__\__
!! PHRAS[AUFTAKTIG]
!!!fkt: ???
!! LOTH VKL
!! PR[36] 2K[11] 2G[21] 3K[0] 3G[4] 4A[0] 4Ü[0] 5A[0] 6K[0] 6G[0]
!! 7K[0] 7G[0] 8A[0] MEHR[0] SI[36] ABS[28] SR[32] SP[4]
!! ST[8] 2k[0] 2g[18] 3k[11] 3g[0] 4d[0] 4ü[0] 5d[0] 6k[0] 6g[0]
!! 7k[0] 7g[0] 8d[0] mehr[0] si[29] dm[+7] sr[18] sp[11]
!! 1F[97] 2F[3] 3F[0] 4F[0] LF[0] 2P[0] 3P[0] 4P[0] TRI[0] DF[2] AB[31]
!! TF[0] U3K[0] U3[0] U4[0] U4Ü[0] U5[0] U6K[0] U6[0] U7K[0] U7[0]
!! N1[14] N2K[0] N2[14] N3K[0] N3[17] N4[14] N4Ü[0] N5[24] N6K[0] N6[10]
!!!n7k: 0] N7[3] O1[3] O2K[0] O2[0] O3K[0] O3[0] HÖ[0
